P3
40 40
255
255 200 0 255 200 0 255 200 0 255 200 0 255 200 0 255 200 0 255 200 0 255 200 0 255 200 0 255 200 0 255 200 0 255 200 0 255 200 0 255 200 0 255 200 0 255 200 0 255 200 0 255 200 0 255 200 0 255 200 0 255 200 0 255 200 0 255 200 0 255 200 0 255 200 0 255 200 0 255 200 0 255 200 0 255 200 0 255 200 0 255 200 0 255 200 0 255 200 0 255 200 0 255 200 0 255 200 0 255 200 0 255 200 0 255 200 0 255 200 0 255 200 0 255 200 0 255 200 0 255 200 0 255 200 0 255 200 0 255 200 0 255 200 0 255 200 0 255 200 0 255 200 0 255 200 0 255 200 0 255 200 0 255 200 0 255 200 0 255 200 0 255 200 0 255 200 0 255 200 0 255 200 0 255 200 0 255 200 0 255 200 0 255 200 0 255 200 0 255 200 0 255 200 0 255 200 0 255 200 0 255 200 0 255 200 0 255 200 0 255 200 0 255 200 0 255 200 0 255 200 0 255 200 0 255 200 0 255 200 0 255 200 0 255 200 0 255 200 0 255 200 0 255 200 0 255 200 0 255 200 0 255 200 0 255 200 0 255 200 0 255 200 0 255 200 0 255 200 0 255 200 0 255 200 0 255 200 0 255 200 0 255 200 0 255 200 0 255 200 0 255 200 0 255 200 0 255 200 0 255 200 0 255 200 0 255 200 0 255 200 0 255 200 0 255 200 0 255 200 0 255 200 0 255 200 0 255 200 0 255 200 0 255 200 0 255 200 0 255 200 0 255 200 0 255 200 0 255 200 0 255 200 0 255 200 0 255 200 0 255 200 0 255 200 0 255 200 0 255 200 0 255 200 0 255 200 0 255 200 0 255 200 0 255 200 0 255 200 0 255 200 0 255 200 0 255 200 0 255 200 0 255 200 0 255 200 0 255 200 0 255 200 0 255 200 0 255 200 0 255 200 0 255 200 0 255 200 0 255 200 0 255 200 0 255 200 0 255 200 0 255 200 0 255 200 0 255 200 0 255 200 0 255 200 0 255 200 0 255 200 0 255 200 0 255 200 0 255 200 0 255 200 0 255 200 0 255 200 0 255 200 0 255 200 0 255 200 0 255 200 0 255 200 0 255 200 0 255 200 0 255 200 0 255 200 0 255 200 0 255 200 0 255 200 0 255 200 0 255 200 0 255 200 0 255 200 0 255 200 0 255 200 0 255 200 0 255 200 0 255 200 0 255 200 0 255 200 0 255 200 0 255 200 0 255 200 0 255 200 0 255 200 0 255 200 0 255 200 0 255 200 0 255 200 0 255 200 0 255 200 0 255 200 0 255 200 0 255 200 0 255 200 0 255 200 0 255 200 0 255 200 0 255 200 0 255 200 0 255 200 0 255 200 0 255 200 0 255 200 0 255 200 0 255 200 0 255 200 0 255 200 0 255 200 0 255 200 0 255 200 0 255 200 0 255 200 0 255 200 0 255 200 0 255 200 0 255 200 0 255 200 0 255 200 0 255 200 0 255 200 0 255 200 0 255 200 0 255 200 0 255 200 0 255 200 0 255 200 0 255 200 0 255 200 0 255 200 0 255 200 0 255 200 0 255 200 0 255 200 0 255 200 0 255 200 0 255 200 0 255 200 0 255 200 0 255 200 0 255 200 0 255 200 0 255 200 0 255 200 0 255 200 0 255 200 0 255 200 0 255 200 0 255 200 0 255 200 0 255 200 0 255 200 0 255 200 0 255 200 0 255 200 0 255 200 0 255 200 0 255 200 0 255 200 0 255 200 0 255 200 0 255 200 0 255 200 0 255 200 0 255 200 0 255 200 0 255 200 0 255 200 0 255 200 0 255 200 0 255 200 0 255 200 0 255 200 0 255 200 0 255 200 0 255 200 0 255 200 0 255 200 0 255 200 0 255 200 0 255 200 0 255 200 0 255 200 0 255 200 0 255 200 0 255 200 0 255 200 0 255 200 0 255 200 0 255 200 0 255 200 0 255 200 0 255 200 0 255 200 0 255 200 0 255 200 0 255 200 0 255 200 0 255 200 0 255 200 0 255 200 0 255 200 0 255 200 0 255 200 0 255 200 0 255 200 0 255 200 0 255 200 0 255 200 0 255 200 0 255 200 0 255 200 0 255 200 0 255 200 0 255 200 0 255 200 0 255 200 0 255 200 0 255 200 0 255 200 0 255 200 0 255 200 0 255 200 0 255 200 0 255 200 0 255 200 0 255 200 0 255 200 0 255 200 0 255 200 0 255 200 0 255 200 0 255 200 0 255 200 0 255 200 0 255 200 0 255 200 0 255 200 0 255 200 0 255 200 0 255 200 0 255 200 0 255 200 0 255 200 0 255 200 0 255 200 0 255 200 0 255 200 0 255 200 0 255 200 0 255 200 0 255 200 0 255 200 0 255 200 0 255 200 0 255 200 0 255 200 0 255 200 0 255 200 0 255 200 0 255 200 0 255 200 0 255 200 0 255 200 0 255 200 0 255 200 0 255 200 0 255 200 0 255 200 0 255 200 0 255 200 0 255 200 0 255 200 0 255 200 0 255 200 0 255 200 0 255 200 0 255 200 0 255 200 0 255 200 0 255 200 0 255 200 0 255 200 0 255 200 0 255 200 0 255 200 0 255 200 0 255 200 0 255 200 0 255 200 0 255 200 0 255 200 0 255 200 0 255 200 0 255 200 0 255 200 0 255 200 0 255 200 0 255 200 0 255 200 0 255 200 0 255 200 0 255 200 0 255 200 0 255 200 0 255 200 0 255 200 0 255 200 0 255 200 0 255 200 0 255 200 0 255 200 0 255 200 0 255 200 0 255 200 0 255 200 0 255 200 0 255 200 0 255 200 0 255 200 0 255 200 0 255 200 0 255 200 0 255 200 0 255 200 0 255 200 0 255 200 0 255 200 0 255 200 0 255 200 0 255 200 0 255 200 0 255 200 0 255 200 0 255 200 0 255 200 0 255 200 0 255 200 0 255 200 0 255 200 0 255 200 0 255 200 0 255 200 0 255 200 0 255 200 0 255 200 0 255 200 0 255 200 0 255 200 0 255 200 0 255 200 0 255 200 0 255 200 0 255 200 0 255 200 0 255 200 0 255 200 0 255 200 0 255 200 0 255 200 0 255 200 0 255 200 0 255 200 0 255 200 0 255 200 0 255 200 0 255 200 0 255 200 0 255 200 0 255 200 0 255 200 0 255 200 0 255 200 0 255 200 0 255 200 0 255 200 0 255 200 0 255 200 0 255 200 0 255 200 0 255 200 0 255 200 0 255 200 0 255 200 0 255 200 0 255 200 0 255 200 0 255 200 0 255 200 0 255 200 0 255 200 0 255 200 0 255 200 0 255 200 0 255 200 0 255 200 0 255 200 0 255 200 0 255 200 0 255 200 0 255 200 0 255 200 0 255 200 0 255 200 0 255 200 0 255 200 0 255 200 0 255 200 0 255 200 0 255 200 0 255 200 0 255 200 0 255 200 0 255 200 0 255 200 0 255 200 0 255 200 0 255 200 0 255 200 0 255 200 0 255 200 0 255 200 0 255 200 0 255 200 0 255 200 0 255 200 0 255 200 0 255 200 0 255 200 0 255 200 0 255 200 0 255 200 0 255 200 0 255 200 0 255 200 0 255 200 0 255 200 0 255 200 0 255 200 0 255 200 0 255 200 0 255 200 0 255 200 0 255 200 0 255 200 0 255 200 0 255 200 0 255 200 0 255 200 0 255 200 0 255 200 0 255 200 0 255 200 0 255 200 0 255 200 0 255 200 0 255 200 0 255 200 0 255 200 0 255 200 0 255 200 0 255 200 0 255 200 0 255 200 0 255 200 0 255 200 0 255 200 0 255 200 0 255 200 0 255 200 0 255 200 0 255 200 0 255 200 0 255 200 0 255 200 0 255 200 0 255 200 0 255 200 0 255 200 0 255 200 0 255 200 0 255 200 0 255 200 0 255 200 0 255 200 0 255 200 0 255 200 0 255 200 0 255 200 0 255 200 0 255 200 0 255 200 0 255 200 0 255 200 0 255 200 0 255 200 0 255 200 0 255 200 0 255 200 0 255 200 0 255 200 0 255 200 0 255 200 0 255 200 0 255 200 0 255 200 0 255 200 0 255 200 0 255 200 0 255 200 0 255 200 0 255 200 0 255 200 0 255 200 0 255 200 0 255 200 0 255 200 0 255 200 0 255 200 0 255 200 0 255 200 0 255 200 0 255 200 0 255 200 0 255 200 0 255 200 0 255 200 0 255 200 0 255 200 0 255 200 0 255 200 0 255 200 0 255 200 0 255 200 0 255 200 0 255 200 0 255 200 0 255 200 0 255 200 0 255 200 0 255 200 0 255 200 0 255 200 0 255 200 0 255 200 0 255 200 0 255 200 0 255 200 0 255 200 0 255 200 0 255 200 0 255 200 0 255 200 0 255 200 0 255 200 0 255 200 0 255 200 0 255 200 0 255 200 0 255 200 0 255 200 0 255 200 0 255 200 0 255 200 0 255 200 0 255 200 0 255 200 0 255 200 0 255 200 0 255 200 0 255 200 0 255 200 0 255 200 0 255 200 0 255 200 0 255 200 0 255 200 0 255 200 0 255 200 0 255 200 0 255 200 0 255 200 0 255 200 0 255 200 0 255 200 0 255 200 0 255 200 0 255 200 0 255 200 0 255 200 0 255 200 0 255 200 0 255 200 0 255 200 0 255 200 0 255 200 0 255 200 0 255 200 0 255 200 0 255 200 0 255 200 0 255 200 0 255 200 0 255 200 0 255 200 0 255 200 0 255 200 0 255 200 0 255 200 0 255 200 0 255 200 0 255 200 0 255 200 0 255 200 0 255 200 0 255 200 0 255 200 0 255 200 0 255 200 0 255 200 0 255 200 0 255 200 0 255 200 0 255 200 0 255 200 0 255 200 0 255 200 0 255 200 0 255 200 0 255 200 0 255 200 0 255 200 0 255 200 0 255 200 0 255 200 0 255 200 0 255 200 0 255 200 0 255 200 0 255 200 0 255 200 0 255 200 0 255 200 0 255 200 0 255 200 0 255 200 0 255 200 0 255 200 0 255 200 0 255 200 0 255 200 0 255 200 0 255 200 0 255 200 0 255 200 0 255 200 0 255 200 0 255 200 0 255 200 0 255 200 0 255 200 0 255 200 0 255 200 0 255 200 0 255 200 0 255 200 0 255 200 0 255 200 0 255 200 0 255 200 0 255 200 0 255 200 0 255 200 0 255 200 0 255 200 0 255 200 0 255 200 0 255 200 0 255 200 0 255 200 0 255 200 0 255 200 0 255 200 0 255 200 0 255 200 0 255 200 0 255 200 0 255 200 0 255 200 0 255 200 0 255 200 0 255 200 0 255 200 0 255 200 0 255 200 0 255 200 0 255 200 0 255 200 0 255 200 0 255 200 0 255 200 0 255 200 0 255 200 0 255 200 0 255 200 0 255 200 0 255 200 0 255 200 0 255 200 0 255 200 0 255 200 0 255 200 0 255 200 0 255 200 0 255 200 0 255 200 0 255 200 0 255 200 0 255 200 0 255 200 0 255 200 0 255 200 0 255 200 0 255 200 0 255 200 0 255 200 0 255 200 0 255 200 0 255 200 0 255 200 0 255 200 0 255 200 0 255 200 0 255 200 0 255 200 0 255 200 0 255 200 0 255 200 0 255 200 0 255 200 0 255 200 0 255 200 0 255 200 0 255 200 0 255 200 0 255 200 0 255 200 0 255 200 0 255 200 0 255 200 0 255 200 0 255 200 0 255 200 0 255 200 0 255 200 0 255 200 0 255 200 0 255 200 0 255 200 0 255 200 0 255 200 0 255 200 0 255 200 0 255 200 0 255 200 0 255 200 0 255 200 0 255 200 0 255 200 0 255 200 0 255 200 0 255 200 0 255 200 0 255 200 0 255 200 0 255 200 0 255 200 0 255 200 0 255 200 0 255 200 0 255 200 0 255 200 0 255 200 0 255 200 0 255 200 0 255 200 0 255 200 0 255 200 0 255 200 0 255 200 0 255 200 0 255 200 0 255 200 0 255 200 0 255 200 0 255 200 0 255 200 0 255 200 0 255 200 0 255 200 0 255 200 0 255 200 0 255 200 0 255 200 0 255 200 0 255 200 0 255 200 0 255 200 0 255 200 0 255 200 0 255 200 0 255 200 0 255 200 0 255 200 0 255 200 0 255 200 0 255 200 0 255 200 0 255 200 0 255 200 0 255 200 0 255 200 0 255 200 0 255 200 0 255 200 0 255 200 0 255 200 0 255 200 0 255 200 0 255 200 0 255 200 0 255 200 0 255 200 0 255 200 0 255 200 0 255 200 0 255 200 0 255 200 0 255 200 0 255 200 0 255 200 0 255 200 0 255 200 0 255 200 0 255 200 0 255 200 0 255 200 0 255 200 0 255 200 0 255 200 0 255 200 0 255 200 0 255 200 0 255 200 0 255 200 0 255 200 0 255 200 0 255 200 0 255 200 0 255 200 0 255 200 0 255 200 0 255 200 0 255 200 0 255 200 0 255 200 0 255 200 0 255 200 0 255 200 0 255 200 0 255 200 0 255 200 0 255 200 0 255 200 0 255 200 0 255 200 0 255 200 0 255 200 0 255 200 0 255 200 0 255 200 0 255 200 0 255 200 0 255 200 0 255 200 0 255 200 0 255 200 0 255 200 0 255 200 0 255 200 0 255 200 0 255 200 0 255 200 0 255 200 0 255 200 0 255 200 0 255 200 0 255 200 0 255 200 0 255 200 0 255 200 0 255 200 0 255 200 0 255 200 0 255 200 0 255 200 0 255 200 0 255 200 0 255 200 0 255 200 0 255 200 0 255 200 0 255 200 0 255 200 0 255 200 0 255 200 0 255 200 0 255 200 0 255 200 0 255 200 0 255 200 0 255 200 0 255 200 0 255 200 0 255 200 0 255 200 0 255 200 0 255 200 0 255 200 0 255 200 0 255 200 0 255 200 0 255 200 0 255 200 0 255 200 0 255 200 0 255 200 0 255 200 0 255 200 0 255 200 0 255 200 0 255 200 0 255 200 0 255 200 0 255 200 0 255 200 0 255 200 0 255 200 0 255 200 0 255 200 0 255 200 0 255 200 0 255 200 0 255 200 0 255 200 0 255 200 0 255 200 0 255 200 0 255 200 0 255 200 0 255 200 0 255 200 0 255 200 0 255 200 0 255 200 0 255 200 0 255 200 0 255 200 0 255 200 0 255 200 0 255 200 0 255 200 0 255 200 0 255 200 0 255 200 0 255 200 0 255 200 0 255 200 0 255 200 0 255 200 0 255 200 0 255 200 0 255 200 0 255 200 0 255 200 0 255 200 0 255 200 0 255 200 0 255 200 0 255 200 0 255 200 0 255 200 0 255 200 0 255 200 0 255 200 0 255 200 0 255 200 0 255 200 0 255 200 0 255 200 0 255 200 0 255 200 0 255 200 0 255 200 0 255 200 0 255 200 0 255 200 0 255 200 0 255 200 0 255 200 0 255 200 0 255 200 0 255 200 0 255 200 0 255 200 0 255 200 0 255 200 0 255 200 0 255 200 0 255 200 0 255 200 0 255 200 0 255 200 0 255 200 0 255 200 0 255 200 0 255 200 0 255 200 0 255 200 0 255 200 0 255 200 0 255 200 0 255 200 0 255 200 0 255 200 0 255 200 0 255 200 0 255 200 0 255 200 0 255 200 0 255 200 0 255 200 0 255 200 0 255 200 0 255 200 0 255 200 0 255 200 0 255 200 0 255 200 0 255 200 0 255 200 0 255 200 0 255 200 0 255 200 0 255 200 0 255 200 0 255 200 0 255 200 0 255 200 0 255 200 0 255 200 0 255 200 0 255 200 0 255 200 0 255 200 0 255 200 0 255 200 0 255 200 0 255 200 0 255 200 0 255 200 0 255 200 0 255 200 0 255 200 0 255 200 0 255 200 0 255 200 0 255 200 0 255 200 0 255 200 0 255 200 0 255 200 0 255 200 0 255 200 0 255 200 0 255 200 0 255 200 0 255 200 0 255 200 0 255 200 0 255 200 0 255 200 0 255 200 0 255 200 0 255 200 0 255 200 0 255 200 0 255 200 0 255 200 0 255 200 0 255 200 0 255 200 0 255 200 0 255 200 0 255 200 0 255 200 0 255 200 0 255 200 0 255 200 0 255 200 0 255 200 0 255 200 0 255 200 0 255 200 0 255 200 0 255 200 0 255 200 0 255 200 0 255 200 0 255 200 0 255 200 0 255 200 0 255 200 0 255 200 0 255 200 0 255 200 0 255 200 0 255 200 0 255 200 0 255 200 0 255 200 0 255 200 0 255 200 0 255 200 0 255 200 0 255 200 0 255 200 0 255 200 0 255 200 0 255 200 0 255 200 0 255 200 0 255 200 0 255 200 0 255 200 0 255 200 0 255 200 0 255 200 0 255 200 0 255 200 0 255 200 0 255 200 0 255 200 0 255 200 0 255 200 0 255 200 0 255 200 0 255 200 0 255 200 0 255 200 0 255 200 0 255 200 0 255 200 0 255 200 0 255 200 0 255 200 0 255 200 0 255 200 0 255 200 0 255 200 0 255 200 0 255 200 0 255 200 0 255 200 0 255 200 0 255 200 0 255 200 0 255 200 0 255 200 0 255 200 0 255 200 0 255 200 0 255 200 0 255 200 0 255 200 0 255 200 0 255 200 0 255 200 0 255 200 0 255 200 0 255 200 0 255 200 0 255 200 0 255 200 0 255 200 0 255 200 0 255 200 0 255 200 0 255 200 0 255 200 0 255 200 0 255 200 0 255 200 0 255 200 0 255 200 0 255 200 0 255 200 0 255 200 0 255 200 0 255 200 0 255 200 0 255 200 0 255 200 0 255 200 0 255 200 0 255 200 0 255 200 0 255 200 0 255 200 0 255 200 0 255 200 0 255 200 0 255 200 0 255 200 0 255 200 0 255 200 0 255 200 0 255 200 0 255 200 0 255 200 0 255 200 0 255 200 0 255 200 0 255 200 0 255 200 0 255 200 0 255 200 0 255 200 0 255 200 0 255 200 0 255 200 0 255 200 0 255 200 0 255 200 0 255 200 0 255 200 0 255 200 0 255 200 0 255 200 0 255 200 0 255 200 0 255 200 0 255 200 0 255 200 0 255 200 0 255 200 0 255 200 0 255 200 0 255 200 0 255 200 0 255 200 0 255 200 0 255 200 0 255 200 0 255 200 0 255 200 0 255 200 0 255 200 0 255 200 0 255 200 0 255 200 0 255 200 0 255 200 0 255 200 0 255 200 0 255 200 0 255 200 0 255 200 0 255 200 0 255 200 0 255 200 0 255 200 0 255 200 0 255 200 0 255 200 0 255 200 0 255 200 0 255 200 0 255 200 0 255 200 0 255 200 0 255 200 0 255 200 0 255 200 0 255 200 0 255 200 0 255 200 0 255 200 0 255 200 0 255 200 0 255 200 0 255 200 0 255 200 0 255 200 0 255 200 0 255 200 0 255 200 0 255 200 0 255 200 0 255 200 0 255 200 0 255 200 0 255 200 0 255 200 0 255 200 0 255 200 0 255 200 0 255 200 0 255 200 0 255 200 0 255 200 0 255 200 0 255 200 0 255 200 0 255 200 0 255 200 0 255 200 0 255 200 0 255 200 0 255 200 0 255 200 0 255 200 0 255 200 0 255 200 0 255 200 0 255 200 0 255 200 0 255 200 0 255 200 0 255 200 0 255 200 0 255 200 0 255 200 0 255 200 0 255 200 0 255 200 0 255 200 0 255 200 0 255 200 0 255 200 0 255 200 0 255 200 0 255 200 0 255 200 0 255 200 0 255 200 0 255 200 0 255 200 0 255 200 0 255 200 0 255 200 0 255 200 0 255 200 0 255 200 0 255 200 0 255 200 0 255 200 0 255 200 0 255 200 0 255 200 0 255 200 0 255 200 0 255 200 0 255 200 0 255 200 0 255 200 0 255 200 0 255 200 0 255 200 0 255 200 0 255 200 0 255 200 0 255 200 0 255 200 0 255 200 0 255 200 0 255 200 0 255 200 0 255 200 0 255 200 0 255 200 0 255 200 0 255 200 0 255 200 0 255 200 0 255 200 0 255 200 0 255 200 0 255 200 0 255 200 0 255 200 0 255 200 0 255 200 0 255 200 0 255 200 0 255 200 0 255 200 0 255 200 0 255 200 0 255 200 0 255 200 0 255 200 0 255 200 0 255 200 0 255 200 0 255 200 0 255 200 0 255 200 0 255 200 0 255 200 0 255 200 0 255 200 0 255 200 0 255 200 0 255 200 0 255 200 0 255 200 0 255 200 0 255 200 0 255 200 0 255 200 0 255 200 0 255 200 0 255 200 0 255 200 0 255 200 0 255 200 0 255 200 0 255 200 0 255 200 0 255 200 0 255 200 0 255 200 0 255 200 0 255 200 0 255 200 0 255 200 0 255 200 0 255 200 0 255 200 0 255 200 0 255 200 0 255 200 0 255 200 0 255 200 0 255 200 0 255 200 0 255 200 0 255 200 0 255 200 0 255 200 0 255 200 0 255 200 0 255 200 0 255 200 0 255 200 0 255 200 0 255 200 0 255 200 0 255 200 0 255 200 0 255 200 0 255 200 0 255 200 0 255 200 0 255 200 0 255 200 0 255 200 0 255 200 0 255 200 0 255 200 0 255 200 0 255 200 0 255 200 0 255 200 0 255 200 0 255 200 0 255 200 0 255 200 0 255 200 0 255 200 0 255 200 0 255 200 0 255 200 0 
